svgs/duotone/send-backward.svg

<svg xmlns="http://www.w3.org/2000/svg" viewBox="0 0 512 512"><!-- Font Awesome Pro 6.0.0-alpha2 by @fontawesome - https://fontawesome.com License - https://fontawesome.com/license (Commercial License) --><defs><style>.fa-secondary{opacity:.4}</style></defs><path d="M448 160H224C188.654 160 160 188.654 160 224V448C160 483.346 188.654 512 224 512H448C483.346 512 512 483.346 512 448V224C512 188.652 483.346 160 448 160ZM448 448H224V224H448V448Z" class="fa-secondary"/><path d="M160 352H64C28.654 352 0 323.346 0 288V64C0 28.652 28.654 0 64 0H288C323.346 0 352 28.652 352 64V160H224C195.277 160 171.262 179.049 163.162 205.105C162.594 206.611 162.057 208.195 161.654 209.963C160.637 214.492 160 219.162 160 224V352Z" class="fa-primary"/></svg>

<svg xmlns="http://www.w3.org/2000/svg" viewBox="0 0 512 512"><!--! Font Awesome Pro 6.0.0-alpha3 by @fontawesome - https://fontawesome.com License - https://fontawesome.com/license (Commercial License) --><defs><style>.fa-secondary{opacity:.4}</style></defs><path class="fa-primary" d="M160 352H64c-35.35 0-64-28.65-64-64V64c0-35.35 28.65-64 64-64h224c35.35 0 64 28.65 64 64v96H224C195.3 160 171.3 179 163.2 205.1C162.6 206.6 162.1 208.2 161.7 209.1C160.6 214.5 160 219.2 160 224V352z"/><path class="fa-secondary" d="M448 160H224C188.7 160 160 188.7 160 224v224c0 35.35 28.65 64 64 64h224c35.35 0 64-28.65 64-64V224C512 188.7 483.3 160 448 160zM448 448H224V224h224V448z"/></svg>
